; generated by Slic3r 0.8.4 on 2012-07-30 at 16:13:31

; layer_height = 0.3
; perimeters = 1
; solid_layers = 0
; fill_density = 0
; nozzle_diameter = 0.35
; filament_diameter = 1.7
; extrusion_multiplier = 1
; perimeter_speed = 125
; infill_speed = 75
; travel_speed = 300
; scale = 1
; single wall width = 0.55mm


G90 ; use absolute coordinates
G21 ; set units to millimeters
G92 E0 ; reset extrusion distance
M82 ; use absolute distances for extrusion
G28
G92 X0 Y0 Z0 E0
G1 F5000 Y30 X30
G1 X220
G1 F100 E10
G28
G92 X0 Y0 Z0
G1 F4000 X101 Y127
G92 X0 Y0 Z0 E0
M106 S255
G1 Z0.300 F18000.000
G1 X-27.572 Y-28.983
G1
G1 X-27.472 Y-29.083 F2250.000 E0.00948
G1 X-21.772 Y-32.983 E0.47236
G1 X-21.642 Y-33.053 E0.48225
G1 X-9.472 Y-38.783 E1.38378
G1 X-9.342 Y-38.823 E1.39290
G1 X-9.202 Y-38.843 E1.40238
G1 X-2.382 Y-39.373 E1.86084
G1 X-2.232 Y-39.373 E1.87089
G1 X11.108 Y-38.253 E2.76809
G1 X11.238 Y-38.233 E2.77691
G1 X11.378 Y-38.193 E2.78667
G1 X17.658 Y-35.173 E3.25369
G1 X43.128 Y-20.653 E5.21862
G1 X43.218 Y-20.593 E5.22587
G1 X43.298 Y-20.523 E5.23299
G1 X43.378 Y-20.443 E5.24057
G1 X43.448 Y-20.353 E5.24822
G1 X43.498 Y-20.263 E5.25512
G1 X43.548 Y-20.153 E5.26321
G1 X43.578 Y-20.053 E5.27021
G1 X43.598 Y-19.943 E5.27770
G1 X43.598 Y19.927 E7.94982
G1 X43.578 Y20.037 E7.95732
G1 X43.548 Y20.137 E7.96431
G1 X43.498 Y20.247 E7.97241
G1 X43.448 Y20.337 E7.97931
G1 X43.378 Y20.427 E7.98695
G1 X43.298 Y20.507 E7.99454
G1 X43.218 Y20.577 E8.00166
G1 X43.128 Y20.637 E8.00891
G1 X21.378 Y33.017 E9.68621
G1 X9.138 Y38.777 E10.59284
G1 X9.008 Y38.817 E10.60195
G1 X8.878 Y38.837 E10.61077
G1 X2.298 Y39.377 E11.05325
G1 X2.138 Y39.377 E11.06397
G1 X-11.432 Y38.237 E11.97665
G1 X-11.562 Y38.217 E11.98546
G1 X-11.692 Y38.177 E11.99458
G1 X-17.922 Y35.197 E12.45743
G1 X-18.052 Y35.117 E12.46766
G1 X-29.042 Y27.477 E13.36471
G1 X-29.142 Y27.397 E13.37329
G1 X-29.242 Y27.297 E13.38277
G1 X-33.142 Y21.597 E13.84565
G1 X-33.212 Y21.467 E13.85555
G1 X-38.942 Y9.297 E14.75707
G1 X-38.982 Y9.167 E14.76619
G1 X-39.002 Y9.037 E14.77501
G1 X-39.552 Y2.457 E15.21754
G1 X-39.552 Y2.297 E15.22826
G1 X-38.412 Y-11.273 E16.14094
G1 X-38.392 Y-11.403 E16.14975
G1 X-38.352 Y-11.543 E16.15951
G1 X-35.362 Y-17.763 E16.62205
G1 X-35.282 Y-17.893 E16.63228
G1 X-27.652 Y-28.883 E17.52895
G1 X-27.624 Y-28.919 E17.53200
G1 X-27.252 Y-28.643 F18000.000
G1 X-27.222 Y-28.663 F2250.000 E17.53442
G1 X-27.202 Y-28.693 E17.53683
G1 X-27.172 Y-28.713 E17.53925
G1 X-27.152 Y-28.733 E17.54115
G1 X-21.512 Y-32.593 E17.99919
G1 X-21.442 Y-32.633 E18.00460
G1 X-9.332 Y-38.333 E18.90163
G1 X-9.272 Y-38.353 E18.90587
G1 X-9.232 Y-38.363 E18.90863
G1 X-9.202 Y-38.373 E18.91075
G1 X-9.172 Y-38.373 E18.91276
G1 X-2.352 Y-38.903 E19.37122
G1 X-2.272 Y-38.903 E19.37658
G1 X11.068 Y-37.783 E20.27379
G1 X11.098 Y-37.783 E20.27580
G1 X11.138 Y-37.773 E20.27856
G1 X11.198 Y-37.753 E20.28280
G1 X11.228 Y-37.733 E20.28522
G1 X17.388 Y-34.773 E20.74325
G1 X17.418 Y-34.763 E20.74537
G1 X42.888 Y-20.243 E22.71030
G1 X42.958 Y-20.193 E22.71606
G1 X43.018 Y-20.133 E22.72175
G1 X43.068 Y-20.073 E22.72698
G1 X43.098 Y-19.993 E22.73271
G1 X43.118 Y-19.913 E22.73824
G1 X43.128 Y-19.833 E22.74364
G1 X43.128 Y19.817 E25.40102
G1 X43.118 Y19.897 E25.40642
G1 X43.098 Y19.977 E25.41195
G1 X43.068 Y20.057 E25.41767
G1 X43.018 Y20.117 E25.42291
G1 X42.958 Y20.177 E25.42859
G1 X42.888 Y20.227 E25.43436
G1 X21.138 Y32.607 E27.11166
G1 X21.108 Y32.627 E27.11407
G1 X8.998 Y38.327 E28.01111
G1 X8.908 Y38.357 E28.01746
G1 X8.868 Y38.367 E28.02023
G1 X8.838 Y38.367 E28.02224
G1 X2.258 Y38.907 E28.46472
G1 X2.178 Y38.907 E28.47008
G1 X-11.392 Y37.767 E29.38276
G1 X-11.422 Y37.767 E29.38477
G1 X-11.462 Y37.757 E29.38753
G1 X-11.552 Y37.727 E29.39389
G1 X-17.712 Y34.777 E29.85164
G1 X-17.782 Y34.737 E29.85704
G1 X-28.802 Y27.077 E30.75651
G1 X-28.822 Y27.047 E30.75892
G1 X-28.852 Y27.027 E30.76134
G1 X-28.872 Y26.997 E30.76376
G1 X-28.892 Y26.977 E30.76565
G1 X-32.752 Y21.337 E31.22370
G1 X-32.792 Y21.267 E31.22910
G1 X-38.492 Y9.157 E32.12614
G1 X-38.522 Y9.067 E32.13250
G1 X-38.532 Y9.027 E32.13526
G1 X-38.532 Y8.997 E32.13727
G1 X-39.082 Y2.417 E32.57980
G1 X-39.082 Y2.337 E32.58517
G1 X-37.942 Y-11.233 E33.49784
G1 X-37.942 Y-11.263 E33.49985
G1 X-37.932 Y-11.303 E33.50262
G1 X-37.912 Y-11.363 E33.50685
G1 X-37.892 Y-11.393 E33.50927
G1 X-34.902 Y-17.623 E33.97241
G1 X-27.298 Y-28.575 E34.86597
G1 X-26.873 Y-28.341 F18000.000
G1 X-21.232 Y-32.203 F2250.000 E35.32412
G1 X-9.125 Y-37.902 E36.22100
G1 X-2.308 Y-38.425 E36.67922
G1 X11.029 Y-37.305 E37.57618
G1 X17.194 Y-34.352 E38.03431
G1 X28.181 Y-26.714 E38.93119
G1 X28.289 Y-26.557 E38.94391
G1 X28.289 Y-26.557 E38.94391
G1 X32.044 Y-21.073 E39.38934
G1 X32.632 Y-19.824 E39.48189
G1 X42.667 Y-19.824 E40.15446
G1 X42.667 Y19.826 E42.81183
G1 X33.017 Y19.826 E43.45858
G1 X33.017 Y19.316 E43.49276
G1 X32.862 Y19.267 E43.50364
G1 X27.872 Y26.446 E44.08959
G1 X27.872 Y26.446 E44.08959
G1 X26.555 Y28.341 E44.24422
G1 X20.914 Y32.203 E44.70237
G1 X8.807 Y37.902 E45.59926
G1 X2.221 Y38.407 E46.04196
G1 X2.221 Y38.444 E46.04444
G1 X-11.347 Y37.305 E46.95693
G1 X-17.512 Y34.352 E47.41506
G1 X-28.499 Y26.714 E48.31194
G1 X-32.362 Y21.073 E48.77010
G1 X-38.061 Y8.966 E49.66698
G1 X-38.566 Y2.380 E50.10968
G1 X-38.603 Y2.380 E50.11217
G1 X-37.464 Y-11.188 E51.02466
G1 X-34.511 Y-17.352 E51.48278
G1 X-26.920 Y-28.273 E52.37414
G1 Z0.600 F18000.000
G1 X-27.009 Y-28.376
G1 X-21.152 Y-32.387 F2608.275 E52.84992
G1 X-9.225 Y-38.001 E53.73340
G1 X-8.847 Y-38.030 E53.75880
G1 X-8.847 Y-38.030 E53.75880
G1 X-2.146 Y-38.544 E54.20925
G1 X10.991 Y-37.441 E55.09280
G1 X17.393 Y-34.374 E55.56855
G1 X28.217 Y-26.850 E56.45203
G1 X32.228 Y-20.993 E56.92780
G1 X32.778 Y-19.824 E57.01438
G1 X42.667 Y-19.824 E57.67716
G1 X42.667 Y19.826 E60.33453
G1 X32.635 Y19.826 E61.00690
G1 X30.679 Y22.640 E61.23658
G1 X30.679 Y22.640 E61.23658
G1 X26.691 Y28.376 E61.70478
G1 X20.834 Y32.387 E62.18056
G1 X8.907 Y38.001 E63.06404
G1 X8.529 Y38.030 E63.08944
G1 X8.529 Y38.030 E63.08944
G1 X1.828 Y38.544 E63.53989
G1 X-11.309 Y37.441 E64.42344
G1 X-11.880 Y37.167 E64.46589
G1 X-11.880 Y37.167 E64.46589
G1 X-17.711 Y34.374 E64.89919
G1 X-28.535 Y26.850 E65.78267
G1 X-32.546 Y20.993 E66.25844
G1 X-38.160 Y9.066 E67.14192
G1 X-38.703 Y1.987 E67.61777
G1 X-37.600 Y-11.150 E68.50132
G1 X-34.533 Y-17.552 E68.97706
G1 X-27.056 Y-28.308 E69.85502
G1 Z0.900 F18000.000
G1 X-27.145 Y-28.411
G1 X-21.071 Y-32.571 F2613.039 E70.34842
G1 X-9.325 Y-38.100 E71.21849
G1 X-8.505 Y-38.163 E71.27363
G1 X-8.505 Y-38.163 E71.27364
G1 X-1.984 Y-38.663 E71.71196
G1 X10.954 Y-37.577 E72.58210
G1 X17.593 Y-34.397 E73.07547
G1 X28.252 Y-26.986 E73.94555
G1 X32.412 Y-20.912 E74.43895
G1 X32.924 Y-19.824 E74.51955
G1 X42.667 Y-19.824 E75.17254
G1 X42.667 Y19.826 E77.82992
G1 X32.796 Y19.826 E78.49150
G1 X27.041 Y28.104 E79.16721
G1 X27.041 Y28.104 E79.16721
G1 X26.827 Y28.411 E79.19228
G1 X25.938 Y29.020 E79.26449
G1 X25.938 Y29.020 E79.26449
G1 X20.753 Y32.571 E79.68568
G1 X9.007 Y38.100 E80.55575
G1 X1.666 Y38.663 E81.04922
G1 X1.573 Y38.655 E81.05546
G1 X1.573 Y38.655 E81.05546
G1 X-11.272 Y37.577 E81.91937
G1 X-17.911 Y34.397 E82.41274
G1 X-28.570 Y26.986 E83.28282
G1 X-32.730 Y20.912 E83.77622
G1 X-38.259 Y9.166 E84.64629
G1 X-38.822 Y1.825 E85.13976
G1 X-37.736 Y-11.113 E86.00990
G1 X-34.556 Y-17.752 E86.50327
G1 X-27.192 Y-28.344 E87.36782
G1 Z1.200 F18000.000
G1 X-27.282 Y-28.447
G1 X-20.990 Y-32.755 F2617.803 E87.87884
G1 X-9.426 Y-38.199 E88.73551
G1 X-8.163 Y-38.296 E88.82040
G1 X-8.163 Y-38.296 E88.82040
G1 X-1.822 Y-38.782 E89.24660
G1 X10.916 Y-37.713 E90.10334
G1 X17.792 Y-34.419 E90.61433
G1 X28.288 Y-27.123 E91.47101
G1 X32.596 Y-20.831 E91.98203
G1 X33.070 Y-19.824 E92.05665
G1 X42.667 Y-19.824 E92.69986
G1 X42.667 Y19.826 E95.35724
G1 X32.957 Y19.826 E96.00804
G1 X26.964 Y28.447 E96.71170
G1 X25.708 Y29.306 E96.81366
G1 X25.708 Y29.306 E96.81366
G1 X20.672 Y32.755 E97.22273
G1 X9.108 Y38.199 E98.07939
G1 X7.845 Y38.296 E98.16428
G1 X7.845 Y38.296 E98.16429
G1 X1.504 Y38.782 E98.59049
G1 X-11.234 Y37.713 E99.44723
G1 X-12.606 Y37.055 E99.54917
G1 X-12.606 Y37.055 E99.54917
G1 X-18.110 Y34.419 E99.95822
G1 X-28.606 Y27.123 E100.81489
G1 X-32.914 Y20.831 E101.32592
G1 X-38.358 Y9.267 E102.18258
G1 X-38.941 Y1.663 E102.69367
G1 X-37.872 Y-11.075 E103.55041
G1 X-34.578 Y-17.951 E104.06140
G1 X-27.329 Y-28.379 E104.91255
G1 Z1.500 F18000.000
G1 X-27.418 Y-28.482
G1 X-20.910 Y-32.939 F2622.568 E105.44120
G1 X-9.526 Y-38.298 E106.28446
G1 X-7.820 Y-38.429 E106.39909
G1 X-7.820 Y-38.429 E106.39910
G1 X-1.660 Y-38.901 E106.81317
G1 X10.879 Y-37.848 E107.65651
G1 X17.992 Y-34.441 E108.18512
G1 X28.323 Y-27.259 E109.02839
G1 X32.780 Y-20.751 E109.55704
G1 X33.216 Y-19.824 E109.62568
G1 X42.667 Y-19.824 E110.25911
G1 X42.667 Y19.826 E112.91648
G1 X33.117 Y19.826 E113.55650
G1 X27.100 Y28.482 E114.26306
G1 X25.478 Y29.592 E114.39476
G1 X25.478 Y29.592 E114.39476
G1 X20.592 Y32.939 E114.79171
G1 X9.208 Y38.298 E115.63496
G1 X1.342 Y38.901 E116.16368
G1 X0.926 Y38.866 E116.19169
G1 X0.926 Y38.866 E116.19169
G1 X-11.197 Y37.848 E117.00701
G1 X-18.310 Y34.441 E117.53563
G1 X-28.641 Y27.259 E118.37890
G1 X-33.098 Y20.751 E118.90755
G1 X-38.457 Y9.367 E119.75081
G1 X-39.060 Y1.501 E120.27952
G1 X-38.007 Y-11.038 E121.12285
G1 X-34.600 Y-18.151 E121.65146
G1 X-27.465 Y-28.415 E122.48921
G1 Z1.800 F18000.000
G1 X-27.554 Y-28.518
G1 X-20.829 Y-33.123 F2627.333 E123.03548
G1 X-9.626 Y-38.396 E123.86533
G1 X-7.478 Y-38.562 E124.00972
G1 X-7.478 Y-38.562 E124.00972
G1 X-1.498 Y-39.020 E124.41167
G1 X10.841 Y-37.984 E125.24160
G1 X18.192 Y-34.463 E125.78784
G1 X28.359 Y-27.395 E126.61771
G1 X32.964 Y-20.670 E127.16398
G1 X33.362 Y-19.824 E127.22664
G1 X42.667 Y-19.824 E127.85028
G1 X42.667 Y19.826 E130.50766
G1 X33.278 Y19.826 E131.13689
G1 X27.236 Y28.518 E131.84634
G1 X20.511 Y33.123 E132.39261
G1 X9.308 Y38.396 E133.22246
G1 X7.160 Y38.562 E133.36685
G1 X7.160 Y38.562 E133.36685
G1 X1.180 Y39.020 E133.76880
G1 X-11.159 Y37.984 E134.59873
G1 X-18.510 Y34.463 E135.14497
G1 X-28.677 Y27.395 E135.97484
G1 X-33.282 Y20.670 E136.52111
G1 X-38.555 Y9.467 E137.35096
G1 X-39.179 Y1.339 E137.89730
G1 X-38.143 Y-11.000 E138.72722
G1 X-35.859 Y-15.769 E139.08156
G1 X-35.859 Y-15.769 E139.08156
G1 X-34.622 Y-18.351 E139.27346
G1 X-27.601 Y-28.450 E140.09781
G1 Z2.100 F18000.000
G1 X-27.691 Y-28.553
G1 X-20.748 Y-33.307 F2651.184 E140.66171
G1 X-9.727 Y-38.495 E141.47815
G1 X-7.136 Y-38.694 E141.65227
G1 X-7.136 Y-38.694 E141.65228
G1 X-1.336 Y-39.139 E142.04211
G1 X10.804 Y-38.120 E142.85863
G1 X18.391 Y-34.485 E143.42249
G1 X28.394 Y-27.532 E144.23896
G1 X33.148 Y-20.589 E144.80285
G1 X33.508 Y-19.824 E144.85954
G1 X42.667 Y-19.824 E145.47339
G1 X42.667 Y-9.633 E146.15641
G1 X42.967 Y-9.633 E146.17652
G1 X42.967 Y-8.062 E146.28180
G1 X42.667 Y-8.062 E146.30191
G1 X42.667 Y-1.107 E146.76804
G1 X42.967 Y-1.107 E146.78814
G1 X42.967 Y-0.053 E146.85875
G1 X42.667 Y-0.053 E146.87886
G1 X42.667 Y19.826 E148.21119
G1 X33.439 Y19.826 E148.82964
G1 X27.373 Y28.553 E149.54199
G1 X20.430 Y33.307 E150.10588
G1 X9.409 Y38.495 E150.92232
G1 X1.018 Y39.139 E151.48628
G1 X-11.122 Y38.120 E152.30280
G1 X-18.709 Y34.485 E152.86666
G1 X-28.712 Y27.532 E153.68313
G1 X-33.466 Y20.589 E154.24703
G1 X-38.654 Y9.568 E155.06347
G1 X-39.298 Y1.177 E155.62743
G1 X-38.279 Y-10.963 E156.44395
G1 X-34.644 Y-18.550 E157.00780
G1 X-27.738 Y-28.486 E157.81875
G1 X43.092 Y5.894 F18000.000
G1 X43.092 Y5.186 F2651.184 E157.86626
G1 Z2.400 F18000.000
G1 X42.967 Y4.342
G1 X42.967 Y6.763 F2666.859 E158.02855
G1 X42.667 Y6.763 E158.04865
G1 X42.667 Y8.171 E158.14303
G1 X42.967 Y8.171 E158.16313
G1 X42.967 Y8.968 E158.21651
G1 X42.667 Y8.968 E158.23661
G1 X42.667 Y10.771 E158.35748
G1 X42.967 Y10.771 E158.37759
G1 X42.967 Y11.536 E158.42886
G1 X42.667 Y11.536 E158.44896
G1 X42.667 Y19.826 E159.00457
G1 X33.600 Y19.826 E159.61223
G1 X27.509 Y28.589 E160.32747
G1 X20.350 Y33.491 E160.90899
G1 X9.509 Y38.594 E161.71203
G1 X6.476 Y38.827 E161.91590
G1 X6.476 Y38.827 E161.91590
G1 X0.857 Y39.258 E162.29361
G1 X-11.084 Y38.256 E163.09673
G1 X-18.909 Y34.507 E163.67821
G1 X-28.748 Y27.668 E164.48127
G1 X-33.650 Y20.509 E165.06279
G1 X-38.753 Y9.668 E165.86583
G1 X-39.417 Y1.016 E166.44741
G1 X-38.415 Y-10.925 E167.25053
G1 X-34.666 Y-18.750 E167.83200
G1 X-27.827 Y-28.589 E168.63507
G1 X-20.668 Y-33.491 E169.21659
G1 X-9.827 Y-38.594 E170.01963
G1 X-6.794 Y-38.827 E170.22350
G1 X-6.794 Y-38.827 E170.22350
G1 X-1.175 Y-39.258 E170.60121
G1 X10.766 Y-38.256 E171.40433
G1 X18.591 Y-34.507 E171.98581
G1 X28.430 Y-27.668 E172.78887
G1 X33.332 Y-20.509 E173.37039
G1 X33.654 Y-19.824 E173.42110
G1 X42.667 Y-19.824 E174.02517
G1 X42.667 Y-10.702 E174.63652
G1 X42.967 Y-10.702 E174.65663
G1 X42.967 Y-7.057 E174.90090
G1 X42.667 Y-7.057 E174.92101
G1 X42.667 Y-2.082 E175.25444
G1 X42.967 Y-2.082 E175.27454
G1 X42.967 Y0.637 E175.45682
G1 X42.667 Y0.637 E175.47693
G1 X42.667 Y4.342 E175.72519
G1 X42.884 Y4.342 E175.73977
G1 Z2.700 F18000.000
G1 X42.967 Y3.851
G1 X42.967 Y7.244 F2671.624 E175.96715
G1 X42.667 Y7.244 E175.98725
G1 X42.667 Y8.089 E176.04390
G1 X42.967 Y8.089 E176.06401
G1 X42.967 Y8.861 E176.11571
G1 X42.667 Y8.861 E176.13582
G1 X42.667 Y10.771 E176.26385
G1 X42.967 Y10.771 E176.28396
G1 X42.967 Y11.536 E176.33523
G1 X42.667 Y11.536 E176.35534
G1 X42.667 Y19.826 E176.91094
G1 X33.761 Y19.826 E177.50782
G1 X27.645 Y28.624 E178.22595
G1 X20.269 Y33.675 E178.82510
G1 X9.609 Y38.693 E179.61473
G1 X6.134 Y38.960 E179.84834
G1 X6.134 Y38.960 E179.84835
G1 X0.695 Y39.377 E180.21394
G1 X-11.047 Y38.391 E181.00364
G1 X-14.420 Y36.775 E181.25429
G1 X-14.420 Y36.775 E181.25429
G1 X-19.109 Y34.529 E181.60274
G1 X-28.783 Y27.804 E182.39241
G1 X-33.834 Y20.428 E182.99155
G1 X-38.852 Y9.768 E183.78118
G1 X-39.536 Y0.854 E184.38039
G1 X-38.550 Y-10.888 E185.17010
G1 X-34.688 Y-18.950 E185.76919
G1 X-27.963 Y-28.624 E186.55886
G1 X-20.587 Y-33.675 E187.15800
G1 X-9.927 Y-38.693 E187.94763
G1 X-6.452 Y-38.960 E188.18125
G1 X-6.452 Y-38.960 E188.18126
G1 X-1.013 Y-39.377 E188.54684
G1 X10.729 Y-38.391 E189.33655
G1 X18.791 Y-34.529 E189.93565
G1 X28.465 Y-27.804 E190.72531
G1 X33.516 Y-20.428 E191.32446
G1 X33.800 Y-19.824 E191.36919
G1 X42.667 Y-19.824 E191.96347
G1 X42.667 Y-11.349 E192.53147
G1 X42.967 Y-11.349 E192.55158
G1 X42.967 Y-6.441 E192.88055
G1 X42.667 Y-6.441 E192.90065
G1 X42.667 Y-2.562 E193.16059
G1 X42.967 Y-2.562 E193.18070
G1 X42.967 Y1.047 E193.42258
G1 X42.667 Y1.047 E193.44269
G1 X42.667 Y3.851 E193.63063
G1 X42.884 Y3.851 E193.64520
G1 Z3.000 F18000.000
G1 X42.967 Y3.722
G1 X42.967 Y5.101 F2682.387 E193.73759
G1 X42.667 Y5.101 E193.75770
G1 X42.667 Y6.356 E193.84182
G1 X42.967 Y6.356 E193.86193
G1 X42.967 Y8.772 E194.02385
G1 X42.667 Y8.772 E194.04395
G1 X42.667 Y10.771 E194.17793
G1 X42.967 Y10.771 E194.19804
G1 X42.967 Y11.536 E194.24931
G1 X42.667 Y11.536 E194.26942
G1 X42.667 Y19.826 E194.82502
G1 X33.922 Y19.826 E195.41111
G1 X27.782 Y28.660 E196.13214
G1 X20.188 Y33.859 E196.74891
G1 X9.709 Y38.792 E197.52513
G1 X0.533 Y39.496 E198.14196
G1 X-11.010 Y38.527 E198.91826
G1 X-19.308 Y34.551 E199.53498
G1 X-28.819 Y27.941 E200.31125
G1 X-34.018 Y20.347 E200.92801
G1 X-38.951 Y9.868 E201.70424
G1 X-39.655 Y0.692 E202.32107
G1 X-38.686 Y-10.851 E203.09737
G1 X-34.710 Y-19.149 E203.71409
G1 X-28.100 Y-28.660 E204.49035
G1 X-20.506 Y-33.859 E205.10712
G1 X-10.027 Y-38.792 E205.88334
G1 X-6.109 Y-39.093 E206.14671
G1 X-6.109 Y-39.093 E206.14671
G1 X-0.851 Y-39.496 E206.50017
G1 X10.692 Y-38.527 E207.27648
G1 X18.990 Y-34.551 E207.89320
G1 X28.501 Y-27.941 E208.66946
G1 X33.700 Y-20.347 E209.28623
G1 X33.946 Y-19.824 E209.32498
G1 X42.667 Y-19.824 E209.90948
G1 X42.667 Y-11.758 E210.45005
G1 X42.967 Y-11.758 E210.47015
G1 X42.967 Y-5.933 E210.86056
G1 X42.667 Y-5.933 E210.88067
G1 X42.667 Y-2.934 E211.08167
G1 X42.967 Y-2.934 E211.10178
G1 X42.967 Y-1.112 E211.22386
G1 X42.667 Y-1.112 E211.24396
G1 X42.667 Y-0.313 E211.29751
G1 X42.967 Y-0.313 E211.31762
