; G-Code generated by Simplify3D(R) Version 3.0.2
; Jan 25, 2016 at 11:49:42 AM
; Settings Summary
;   processName,Process1
;   applyToModels,tallthin
;   profileName,bedtest(2) (modified)
;   profileVersion,2016-01-20 11:09:45
;   baseProfile,
;   printMaterial,
;   printQuality,
;   printExtruders,
;   extruderName,Left,Right
;   extruderToolheadNumber,0,1
;   extruderDiameter,0.35,0.35
;   extruderAutoWidth,0,1
;   extruderWidth,0.3,0.42
;   extrusionMultiplier,1.05,1
;   extruderUseRetract,1,1
;   extruderRetractionDistance,1,2
;   extruderExtraRestartDistance,0,-0.04
;   extruderRetractionZLift,0.6,1
;   extruderRetractionSpeed,2400,6000
;   extruderUseCoasting,0,1
;   extruderCoastingDistance,0.2,0.04
;   extruderUseWipe,0,0
;   extruderWipeDistance,5,5
;   primaryExtruder,0
;   layerHeight,0.24
;   topSolidLayers,0
;   bottomSolidLayers,4
;   perimeterOutlines,4
;   printPerimetersInsideOut,1
;   startPointOption,3
;   startPointOriginX,120
;   startPointOriginY,0
;   startPointOriginZ,0
;   sequentialIslands,0
;   spiralVaseMode,0
;   firstLayerHeightPercentage,90
;   firstLayerWidthPercentage,100
;   firstLayerUnderspeed,0.5
;   useRaft,0
;   raftExtruder,0
;   raftLayers,3
;   raftOffset,7
;   raftSeparationDistance,0.14
;   raftInfill,85
;   disableRaftBaseLayers,0
;   useSkirt,1
;   skirtExtruder,0
;   skirtLayers,1
;   skirtOutlines,2
;   skirtOffset,2
;   usePrimePillar,0
;   primePillarExtruder,999
;   primePillarWidth,12
;   primePillarLocation,7
;   primePillarSpeedMultiplier,1
;   useOozeShield,0
;   oozeShieldExtruder,999
;   oozeShieldOffset,2.2
;   oozeShieldOutlines,2
;   oozeShieldSidewallShape,2
;   oozeShieldSidewallAngle,30
;   oozeShieldSpeedMultiplier,2
;   infillExtruder,0
;   internalInfillPattern,Triangular
;   externalInfillPattern,Rectilinear
;   infillPercentage,0
;   outlineOverlapPercentage,50
;   infillExtrusionWidthPercentage,100
;   minInfillLength,1
;   infillLayerInterval,1
;   infillAngles,0,60,-60
;   overlapInfillAngles,1
;   generateSupport,0
;   supportExtruder,0
;   supportInfillPercentage,30
;   supportExtraInflation,0
;   denseSupportLayers,0
;   denseSupportInfillPercentage,95
;   supportLayerInterval,1
;   supportHorizontalPartOffset,0.3
;   supportUpperSeparationLayers,1
;   supportLowerSeparationLayers,1
;   supportType,0
;   supportGridSpacing,4
;   maxOverhangAngle,45
;   supportAngles,0
;   temperatureName,Primary Extruder,bed
;   temperatureNumber,0,0
;   temperatureSetpointCount,1,1
;   temperatureSetpointLayers,1,1
;   temperatureSetpointTemperatures,220,70
;   temperatureStabilizeAtStartup,0,0
;   temperatureHeatedBed,0,1
;   temperatureRelayBetweenLayers,0,0
;   temperatureRelayBetweenLoops,0,0
;   fanLayers,1,2
;   fanSpeeds,0,100
;   blipFanToFullPower,1
;   adjustSpeedForCooling,1
;   minSpeedLayerTime,6
;   minCoolingSpeedSlowdown,20
;   increaseFanForCooling,0
;   minFanLayerTime,45
;   maxCoolingFanSpeed,100
;   increaseFanForBridging,0
;   bridgingFanSpeed,100
;   use5D,1
;   relativeEdistances,0
;   allowEaxisZeroing,1
;   independentExtruderAxes,0
;   includeM10123,0
;   stickySupport,1
;   applyToolheadOffsets,0
;   gcodeXoffset,0
;   gcodeYoffset,0
;   gcodeZoffset,0
;   overrideMachineDefinition,1
;   machineTypeOverride,0
;   strokeXoverride,200
;   strokeYoverride,250
;   strokeZoverride,200
;   originOffsetXoverride,0
;   originOffsetYoverride,0
;   originOffsetZoverride,0
;   homeXdirOverride,-1
;   homeYdirOverride,-1
;   homeZdirOverride,-1
;   flipXoverride,1
;   flipYoverride,-1
;   flipZoverride,1
;   toolheadOffsets,0,0|0,0|0,0|0,0|0,0|0,0
;   overrideFirmwareConfiguration,0
;   firmwareTypeOverride,RepRap (Marlin/Repetier/Sprinter)
;   GPXconfigOverride,r2
;   baudRateOverride,115200
;   overridePrinterModels,0
;   printerModelsOverride
;   startingGcode,M108 S255 ; turn on M2 fans,T0;,M201 X1000 Y1500,M205 X5,G28 X,G1 X215 F10000,G28 Y,G1 Y50 F10000 ; move forward to avoid clips,G28 Z,G1 Z0.4 ; position nozzle,G92 E0 ; zero extruder,G1 E25 F225 ; purge nozzle,G92 E0 ; zero extruder,G1 X190 Z0.1 E1.0 F1200 ; slow wipe,G1 X180 Z0.25 ; lift
;   layerChangeGcode,
;   retractionGcode,
;   toolChangeGcode,T[old_tool],G92 E0,G1 F2400 E-6,G92 E0,T[new_tool],G92 E0,G1 F2400 E6,G92 E0
;   endingGcode,G1 X215 F10000,M104 S0 ; turn off extruder,M104 T0 S0;,M104 T1 S0,M140 S0 ; turn off bed,G91 ; relative mode,G1 Z10 ; lift 10mm,G90 ; absolute mode,M84 ; disable motors
;   createX3G,0
;   celebration,0
;   celebrationSong,Random Song
;   createMB5G,0
;   postProcessing,
;   defaultSpeed,2500
;   outlineUnderspeed,0.6
;   solidInfillUnderspeed,1
;   supportUnderspeed,0.8
;   rapidXYspeed,6000
;   rapidZspeed,1000
;   minBridgingArea,50
;   bridgingExtraInflation,0
;   bridgingExtrusionMultiplier,1
;   bridgingSpeedMultiplier,1
;   filamentDiameter,1.75
;   filamentPricePerKg,46
;   filamentDensity,1.25
;   useMinPrintHeight,0
;   minPrintHeight,0
;   useMaxPrintHeight,0
;   maxPrintHeight,45
;   useDiaphragm,0
;   diaphragmLayerInterval,20
;   robustSlicing,0
;   mergeAllIntoSolid,1
;   onlyRetractWhenCrossingOutline,1
;   retractBetweenLayers,1
;   useRetractionMinTravel,0
;   retractionMinTravel,3
;   retractWhileWiping,0
;   onlyWipeOutlines,1
;   avoidCrossingOutline,0
;   maxMovementDetourFactor,3
;   toolChangeRetractionDistance,12
;   toolChangeExtraRestartDistance,-0.5
;   toolChangeRetractionSpeed,600
;   allowThinWallGapFill,1
;   thinWallAllowedOverlapPercentage,20
;   horizontalSizeCompensation,0
G90
M82
M106 S0
M140 S70
M104 S220 T0
M108 S255 ; turn on M2 fans
T0;
M201 X1000 Y1500
M205 X5
G28 X
G1 X215 F10000
G28 Y
G1 Y50 F10000 ; move forward to avoid clips
G28 Z
G1 Z0.4 ; position nozzle
G92 E0 ; zero extruder
G1 E25 F225 ; purge nozzle
G92 E0 ; zero extruder
G1 X190 Z0.1 E1.0 F1200 ; slow wipe
G1 X180 Z0.25 ; lift
G92 E0
G1 E-1.0000 F2400
G1 Z0.816 F1000
; layer 1, Z = 0.216
T0
G92 E0
G1 F2400 E-6
G92 E0
T0
G92 E0
G1 F2400 E6
G92 E0
; tool H0.240 W0.300
; skirt
G1 X92.466 Y113.191 F6000
G1 Z0.216 F1000
G1 E0.0000 F720
G92 E0
G1 X93.495 Y112.594 E0.0374 F1250
G1 X93.610 Y112.564 E0.0411
G1 X106.345 Y112.540 E0.4414
G1 X106.459 Y112.571 E0.4451
G1 X107.491 Y113.164 E0.4825
G1 X107.575 Y113.248 E0.4863
G1 X113.963 Y124.265 E0.8865
G1 X113.994 Y124.379 E0.8903
G1 X113.996 Y125.570 E0.9277
G1 X113.965 Y125.684 E0.9314
G1 X107.618 Y136.725 E1.3317
G1 X107.534 Y136.809 E1.3354
G1 X106.505 Y137.406 E1.3728
G1 X106.390 Y137.436 E1.3765
G1 X93.655 Y137.460 E1.7768
G1 X93.541 Y137.429 E1.7805
G1 X92.509 Y136.836 E1.8180
G1 X92.425 Y136.752 E1.8217
G1 X86.037 Y125.735 E2.2220
G1 X86.006 Y125.621 E2.2257
G1 X86.004 Y124.430 E2.2631
G1 X86.035 Y124.316 E2.2668
G1 X92.382 Y113.275 E2.6671
G1 X92.466 Y113.191 E2.6708
G1 X92.650 Y113.431 F6000
G92 E0
G1 X93.612 Y112.874 E0.0349 F1250
G1 X93.650 Y112.863 E0.0362
G1 X106.306 Y112.840 E0.4340
G1 X106.344 Y112.851 E0.4352
G1 X107.308 Y113.404 E0.4701
G1 X107.335 Y113.432 E0.4714
G1 X113.683 Y124.381 E0.8692
G1 X113.694 Y124.419 E0.8704
G1 X113.696 Y125.531 E0.9053
G1 X113.686 Y125.569 E0.9066
G1 X107.378 Y136.541 E1.3044
G1 X107.350 Y136.569 E1.3056
G1 X106.388 Y137.126 E1.3405
G1 X106.350 Y137.137 E1.3418
G1 X93.694 Y137.160 E1.7396
G1 X93.656 Y137.149 E1.7408
G1 X92.692 Y136.596 E1.7757
G1 X92.665 Y136.568 E1.7770
G1 X86.316 Y125.619 E2.1748
G1 X86.306 Y125.581 E2.1760
G1 X86.304 Y124.469 E2.2109
G1 X86.314 Y124.431 E2.2122
G1 X92.622 Y113.459 E2.6100
G1 X92.650 Y113.431 E2.6112
G92 E0
G1 E-1.0000 F2400
G1 Z0.816 F1000
; inner perimeter
G1 X105.150 Y116.043 F6000
G1 Z0.216 F1000
G1 E0.0000 F2400
G92 E0
G1 X110.332 Y124.981 E0.3248 F1125
G1 X105.182 Y133.939 E0.6495
G1 X94.850 Y133.958 E0.9743
G1 X89.668 Y125.019 E1.2990
G1 X93.679 Y118.039 E1.5521
G1 X94.821 Y116.061 E1.6238
G1 X105.150 Y116.043 E1.9485
; inner perimeter
G1 X105.323 Y115.742 F6000
G92 E0
G1 X110.679 Y124.981 E0.3356 F1000
G1 X105.356 Y134.238 E0.6713
G1 X94.677 Y134.258 E1.0069
G1 X89.321 Y125.019 E1.3426
G1 X93.420 Y117.887 E1.6011
G1 X94.647 Y115.762 E1.6783
G1 X105.323 Y115.742 E2.0138
; inner perimeter
G1 X105.495 Y115.442 F6000
G92 E0
G1 X111.025 Y124.980 E0.3465 F875
G1 X105.530 Y134.538 E0.6931
G1 X94.505 Y134.558 E1.0396
G1 X88.975 Y125.020 E1.3861
G1 X93.160 Y117.738 E1.6501
G1 X94.474 Y115.462 E1.7327
G1 X105.495 Y115.442 E2.0791
; outer perimeter
G1 X105.668 Y115.142 F6000
G92 E0
G1 X111.372 Y124.979 E0.3574 F750
G1 X105.704 Y134.838 E0.7148
G1 X94.332 Y134.858 E1.0723
G1 X88.628 Y125.021 E1.4297
G1 X92.900 Y117.589 E1.6991
G1 X94.290 Y115.180 E1.7865
G1 X94.300 Y115.162 E1.7872
G1 X105.668 Y115.142 E2.1445
; solid layer
G1 X94.490 Y116.933 F6000
G92 E0
G1 X95.213 Y116.211 E0.0321 F1250
G1 X95.638 Y116.210 E0.0455
G1 X93.911 Y117.937 E0.1223
G1 X93.809 Y118.114 E0.1287
G1 X93.336 Y118.936 E0.1585
G1 X96.063 Y116.209 E0.2797
G1 X96.488 Y116.208 E0.2930
G1 X92.763 Y119.933 E0.4586
G1 X92.190 Y120.931 E0.4948
G1 X96.913 Y116.207 E0.7047
G1 X97.338 Y116.207 E0.7181
G1 X91.617 Y121.928 E0.9724
G1 X91.043 Y122.926 E1.0086
G1 X97.763 Y116.206 E1.3073
G1 X98.188 Y116.205 E1.3206
G1 X90.470 Y123.923 E1.6637
G1 X89.897 Y124.921 E1.6999
G1 X98.613 Y116.204 E2.0873
G1 X99.038 Y116.204 E2.1007
G1 X89.981 Y125.261 E2.5033
G1 X90.137 Y125.529 E2.5130
G1 X99.463 Y116.203 E2.9276
G1 X99.888 Y116.202 E2.9409
G1 X90.293 Y125.798 E3.3675
G1 X90.448 Y126.066 E3.3772
G1 X100.313 Y116.201 E3.8157
G1 X100.739 Y116.201 E3.8291
G1 X90.604 Y126.335 E4.2796
G1 X90.760 Y126.604 E4.2893
G1 X101.164 Y116.200 E4.7518
G1 X101.589 Y116.199 E4.7651
G1 X90.916 Y126.872 E5.2395
G1 X91.071 Y127.141 E5.2493
G1 X102.014 Y116.198 E5.7357
G1 X102.439 Y116.197 E5.7490
G1 X91.227 Y127.409 E6.2474
G1 X91.383 Y127.678 E6.2572
G1 X102.864 Y116.197 E6.7675
G1 X103.289 Y116.196 E6.7808
G1 X91.538 Y127.946 E7.3031
G1 X91.694 Y128.215 E7.3129
G1 X103.714 Y116.195 E7.8472
G1 X104.139 Y116.194 E7.8605
G1 X91.850 Y128.483 E8.4068
G1 X92.005 Y128.752 E8.4165
G1 X104.564 Y116.194 E8.9748
G1 X104.989 Y116.193 E8.9881
G1 X92.161 Y129.021 E9.5583
G1 X92.317 Y129.289 E9.5681
G1 X105.192 Y116.414 E10.1404
G1 X105.348 Y116.683 E10.1501
G1 X92.473 Y129.558 E10.7224
G1 X92.628 Y129.826 E10.7322
G1 X105.503 Y116.951 E11.3045
G1 X105.659 Y117.220 E11.3142
G1 X92.784 Y130.095 E11.8865
G1 X92.940 Y130.363 E11.8963
G1 X105.815 Y117.488 E12.4686
G1 X105.970 Y117.757 E12.4783
G1 X93.095 Y130.632 E13.0506
G1 X93.251 Y130.900 E13.0604
G1 X106.126 Y118.025 E13.6327
G1 X106.282 Y118.294 E13.6424
G1 X93.407 Y131.169 E14.2147
G1 X93.562 Y131.438 E14.2245
G1 X106.438 Y118.563 E14.7968
G1 X106.593 Y118.831 E14.8065
G1 X93.718 Y131.706 E15.3788
G1 X93.874 Y131.975 E15.3886
G1 X106.749 Y119.100 E15.9609
G1 X106.905 Y119.368 E15.9707
G1 X94.030 Y132.243 E16.5429
G1 X94.185 Y132.512 E16.5527
G1 X107.060 Y119.637 E17.1250
G1 X107.216 Y119.905 E17.1348
G1 X94.341 Y132.780 E17.7071
G1 X94.497 Y133.049 E17.7168
G1 X107.372 Y120.174 E18.2891
G1 X107.527 Y120.442 E18.2989
G1 X94.652 Y133.317 E18.8712
G1 X94.808 Y133.586 E18.8809
G1 X107.683 Y120.711 E19.4532
G1 X107.839 Y120.980 E19.4630
G1 X95.011 Y133.807 E20.0332
G1 X95.436 Y133.806 E20.0465
G1 X107.995 Y121.248 E20.6047
G1 X108.150 Y121.517 E20.6145
G1 X95.861 Y133.806 E21.1607
G1 X96.286 Y133.805 E21.1741
G1 X108.306 Y121.785 E21.7084
G1 X108.462 Y122.054 E21.7181
G1 X96.711 Y133.804 E22.2404
G1 X97.136 Y133.803 E22.2538
G1 X108.617 Y122.322 E22.7641
G1 X108.773 Y122.591 E22.7739
G1 X97.561 Y133.803 E23.2722
G1 X97.986 Y133.802 E23.2856
G1 X108.929 Y122.859 E23.7720
G1 X109.085 Y123.128 E23.7817
G1 X98.412 Y133.801 E24.2561
G1 X98.837 Y133.800 E24.2695
G1 X109.240 Y123.397 E24.7319
G1 X109.396 Y123.665 E24.7417
G1 X99.262 Y133.799 E25.1922
G1 X99.687 Y133.799 E25.2055
G1 X109.552 Y123.934 E25.6440
G1 X109.707 Y124.202 E25.6538
G1 X100.112 Y133.798 E26.0803
G1 X100.537 Y133.797 E26.0937
G1 X109.863 Y124.471 E26.5082
G1 X110.019 Y124.739 E26.5180
G1 X100.962 Y133.796 E26.9206
G1 X101.387 Y133.796 E26.9339
G1 X110.103 Y125.080 E27.3214
G1 X109.529 Y126.078 E27.3575
G1 X101.812 Y133.795 E27.7006
G1 X102.237 Y133.794 E27.7139
G1 X108.955 Y127.076 E28.0126
G1 X108.381 Y128.074 E28.0487
G1 X102.662 Y133.793 E28.3030
G1 X103.087 Y133.793 E28.3163
G1 X107.807 Y129.072 E28.5261
G1 X107.234 Y130.070 E28.5623
G1 X103.512 Y133.792 E28.7278
G1 X103.937 Y133.791 E28.7411
G1 X106.660 Y131.068 E28.8621
G1 X106.086 Y132.066 E28.8983
G1 X104.362 Y133.790 E28.9750
G1 X104.787 Y133.789 E28.9883
G1 X105.512 Y133.064 E29.0206
G92 E0
G1 E-1.0000 F2400
G1 Z1.056 F1000
; layer 2, Z = 0.456
M106 S255
; inner perimeter
G1 X105.114 Y116.035 F6000
G1 Z0.456 F1000
G1 E0.0000 F2400
G92 E0
G1 X106.096 Y117.736 E0.0617 F2250
G1 X106.280 Y118.013 E0.0722
G1 X107.552 Y120.217 E0.1522
G1 X107.734 Y120.499 E0.1627
G1 X109.010 Y122.708 E0.2429
G1 X109.192 Y122.990 E0.2534
G1 X110.321 Y124.946 E0.3244
G1 X109.339 Y126.647 E0.3862
G1 X109.191 Y126.945 E0.3966
G1 X107.919 Y129.149 E0.4766
G1 X107.765 Y129.447 E0.4871
G1 X106.490 Y131.656 E0.5673
G1 X106.336 Y131.955 E0.5779
G1 X105.207 Y133.911 E0.6489
G1 X103.243 Y133.911 E0.7106
G1 X102.911 Y133.932 E0.7211
G1 X100.366 Y133.932 E0.8010
G1 X100.031 Y133.949 E0.8116
G1 X97.480 Y133.949 E0.8918
G1 X97.145 Y133.965 E0.9023
G1 X94.886 Y133.965 E0.9733
G1 X93.904 Y132.264 E1.0351
G1 X93.720 Y131.987 E1.0455
G1 X92.448 Y129.783 E1.1255
G1 X92.266 Y129.501 E1.1360
G1 X90.990 Y127.292 E1.2162
G1 X90.808 Y127.010 E1.2268
G1 X89.679 Y125.054 E1.2978
G1 X90.661 Y123.353 E1.3595
G1 X90.810 Y123.053 E1.3700
G1 X93.511 Y118.342 E1.5407
G1 X93.664 Y118.045 E1.5512
G1 X94.793 Y116.089 E1.6222
G1 X96.757 Y116.089 E1.6839
G1 X97.089 Y116.068 E1.6944
G1 X99.634 Y116.068 E1.7744
G1 X99.969 Y116.051 E1.7849
G1 X102.520 Y116.051 E1.8651
G1 X102.855 Y116.035 E1.8756
G1 X105.114 Y116.035 E1.9466
; inner perimeter
G1 X105.287 Y115.735 F6000
G92 E0
G1 X106.351 Y117.578 E0.0669 F2000
G1 X106.535 Y117.855 E0.0773
G1 X107.808 Y120.060 E0.1574
G1 X107.990 Y120.342 E0.1679
G1 X109.266 Y122.552 E0.2481
G1 X109.448 Y122.834 E0.2587
G1 X110.667 Y124.946 E0.3353
G1 X109.603 Y126.789 E0.4022
G1 X109.455 Y127.087 E0.4127
G1 X108.182 Y129.292 E0.4927
G1 X108.029 Y129.591 E0.5033
G1 X106.753 Y131.800 E0.5834
G1 X106.600 Y132.099 E0.5940
G1 X105.380 Y134.211 E0.6707
G1 X103.252 Y134.211 E0.7375
G1 X102.920 Y134.232 E0.7480
G1 X100.374 Y134.232 E0.8280
G1 X100.039 Y134.249 E0.8386
G1 X97.487 Y134.249 E0.9188
G1 X97.152 Y134.265 E0.9293
G1 X94.713 Y134.265 E1.0060
G1 X93.649 Y132.422 E1.0729
G1 X93.465 Y132.145 E1.0833
G1 X92.192 Y129.940 E1.1634
G1 X92.010 Y129.658 E1.1739
G1 X90.734 Y127.448 E1.2541
G1 X90.552 Y127.166 E1.2646
G1 X89.333 Y125.054 E1.3413
G1 X90.397 Y123.211 E1.4082
G1 X90.545 Y122.912 E1.4187
G1 X93.247 Y118.199 E1.5895
G1 X93.400 Y117.901 E1.6000
G1 X94.620 Y115.789 E1.6766
G1 X96.748 Y115.789 E1.7435
G1 X97.080 Y115.768 E1.7540
G1 X99.626 Y115.768 E1.8340
G1 X99.961 Y115.751 E1.8446
G1 X102.513 Y115.751 E1.9247
G1 X102.848 Y115.735 E1.9353
G1 X105.287 Y115.735 E2.0120
; inner perimeter
G1 X105.459 Y115.432 F6000
G92 E0
G1 X106.606 Y117.420 E0.0721 F1750
G1 X106.790 Y117.697 E0.0826
G1 X108.064 Y119.904 E0.1627
G1 X108.246 Y120.186 E0.1732
G1 X109.522 Y122.395 E0.2534
G1 X109.704 Y122.677 E0.2640
G1 X110.978 Y124.884 E0.3440
G1 X111.015 Y124.944 E0.3463
G1 X109.868 Y126.931 E0.4184
G1 X109.720 Y127.229 E0.4289
G1 X108.446 Y129.436 E0.5089
G1 X108.292 Y129.735 E0.5195
G1 X107.017 Y131.944 E0.5997
G1 X106.863 Y132.242 E0.6102
G1 X105.589 Y134.449 E0.6903
G1 X105.556 Y134.511 E0.6925
G1 X103.262 Y134.511 E0.7647
G1 X102.929 Y134.532 E0.7751
G1 X100.381 Y134.532 E0.8552
G1 X100.046 Y134.549 E0.8658
G1 X97.495 Y134.549 E0.9459
G1 X97.160 Y134.565 E0.9565
G1 X94.612 Y134.565 E1.0366
G1 X94.541 Y134.568 E1.0388
G1 X93.394 Y132.580 E1.1109
G1 X93.210 Y132.303 E1.1214
G1 X91.936 Y130.096 E1.2015
G1 X91.754 Y129.814 E1.2120
G1 X90.478 Y127.605 E1.2922
G1 X90.296 Y127.323 E1.3028
G1 X89.022 Y125.116 E1.3828
G1 X88.985 Y125.056 E1.3851
G1 X90.132 Y123.069 E1.4572
G1 X90.281 Y122.770 E1.4677
G1 X92.984 Y118.056 E1.6385
G1 X93.137 Y117.758 E1.6490
