; generated by Slic3r 0.8.2 on 2012-07-30 at 18:46:54

; layer_height = 0.3
; perimeters = 3
; solid_layers = 3
; fill_density = 0.2
; nozzle_diameter = 0.35
; filament_diameter = 1.75
; extrusion_multiplier = 1
; perimeter_speed = 80
; infill_speed = 100
; travel_speed = 300
; extrusion_width_ratio = 0
; scale = 1
; single wall width = 0.37mm


G90 ; use absolute coordinates
G21 ; set units to millimeters
G92 E0 ; reset extrusion distance
M82 ; use absolute distances for extrusion
G28
G92 X0 Y0 Z0 E0
G1 F5000 Y30 X30
G1 X220
G1 F100 E10
G28
G92 X0 Y0 Z0
G1 F4000 X101 Y127
G92 X0 Y0 Z0 E0
M106 S127
G1 X-13.054 Y-20.688 F18000.000
G1 F600.000 E1.00000
G1 X-12.984 Y-20.808 F1440.000 E1.00630
G1 X-12.894 Y-20.928 E1.01311
G1 X-12.694 Y-21.138 E1.02626
G1 X-12.584 Y-21.228 E1.03271
G1 X-12.464 Y-21.308 E1.03926
G1 X-12.204 Y-21.448 E1.05265
G1 X-12.074 Y-21.498 E1.05897
G1 X-11.934 Y-21.538 E1.06558
G1 X-11.784 Y-21.568 E1.07252
G1 X-11.644 Y-21.588 E1.07893
G1 X-11.494 Y-21.588 E1.08574
G1 X11.386 Y-21.648 E2.12377
G1 X11.526 Y-21.648 E2.13012
G1 X11.666 Y-21.628 E2.13653
G1 X11.816 Y-21.598 E2.14347
G1 X11.956 Y-21.558 E2.15008
G1 X12.086 Y-21.508 E2.15640
G1 X12.216 Y-21.448 E2.16290
G1 X12.346 Y-21.378 E2.16959
G1 X12.576 Y-21.198 E2.18284
G1 X12.686 Y-21.098 E2.18959
G1 X12.866 Y-20.878 E2.20248
G1 X12.946 Y-20.758 E2.20903
G1 X24.506 Y-0.848 E3.25352
G1 X24.606 Y-0.578 E3.26659
G1 X24.646 Y-0.438 E3.27319
G1 X24.666 Y-0.288 E3.28006
G1 X24.676 Y-0.148 E3.28643
G1 X24.676 Y0.002 E3.29323
G1 X24.666 Y0.142 E3.29960
G1 X24.646 Y0.292 E3.30646
G1 X24.566 Y0.562 E3.31924
G1 X24.506 Y0.702 E3.32615
G1 X12.976 Y20.802 E4.37743
G1 X12.886 Y20.922 E4.38424
G1 X12.686 Y21.132 E4.39739
G1 X12.576 Y21.222 E4.40384
G1 X12.456 Y21.302 E4.41038
G1 X12.196 Y21.442 E4.42378
G1 X11.926 Y21.532 E4.43669
G1 X11.776 Y21.562 E4.44363
G1 X11.636 Y21.582 E4.45005
G1 X11.486 Y21.582 E4.45685
G1 X-11.394 Y21.632 E5.49488
G1 X-11.534 Y21.632 E5.50123
G1 X-11.684 Y21.612 E5.50810
G1 X-11.824 Y21.582 E5.51459
G1 X-11.964 Y21.542 E5.52120
G1 X-12.094 Y21.492 E5.52752
G1 X-12.224 Y21.432 E5.53401
G1 X-12.354 Y21.362 E5.54071
G1 X-12.584 Y21.182 E5.55396
G1 X-12.694 Y21.082 E5.56071
G1 X-12.874 Y20.862 E5.57360
G1 X-12.954 Y20.742 E5.58015
G1 X-24.514 Y0.832 E6.62464
G1 X-24.614 Y0.562 E6.63771
G1 X-24.654 Y0.422 E6.64431
G1 X-24.674 Y0.272 E6.65118
G1 X-24.684 Y0.132 E6.65754
G1 X-24.684 Y-0.018 E6.66435
G1 X-24.674 Y-0.158 E6.67072
G1 X-24.654 Y-0.308 E6.67758
G1 X-24.574 Y-0.588 E6.69079
G1 X-24.514 Y-0.718 E6.69729
G1 X-13.081 Y-20.640 E7.73937
G1 X-12.744 Y-20.508 F18000.000
G1 X-12.674 Y-20.618 F1440.000 E7.74529
G1 X-12.494 Y-20.828 E7.75784
G1 X-12.384 Y-20.918 E7.76429
G1 X-12.274 Y-20.998 E7.77046
G1 X-12.154 Y-21.068 E7.77676
G1 X-12.034 Y-21.128 E7.78285
G1 X-11.774 Y-21.208 E7.79519
G1 X-11.634 Y-21.228 E7.80160
G1 X-11.494 Y-21.228 E7.80796
G1 X11.386 Y-21.288 E8.84598
G1 X11.516 Y-21.288 E8.85188
G1 X11.656 Y-21.268 E8.85830
G1 X11.786 Y-21.238 E8.86435
G1 X11.916 Y-21.188 E8.87067
G1 X12.166 Y-21.068 E8.88325
G1 X12.276 Y-20.988 E8.88942
G1 X12.376 Y-20.898 E8.89553
G1 X12.476 Y-20.798 E8.90194
G1 X12.636 Y-20.568 E8.91465
G1 X24.126 Y-0.788 E9.95245
G1 X24.186 Y-0.668 E9.95854
G1 X24.236 Y-0.548 E9.96444
G1 X24.306 Y-0.278 E9.97709
G1 X24.316 Y-0.138 E9.98346
G1 X24.316 Y-0.008 E9.98936
G1 X24.306 Y0.132 E9.99573
G1 X24.276 Y0.272 E10.00222
G1 X24.236 Y0.402 E10.00839
G1 X24.186 Y0.532 E10.01471
G1 X24.126 Y0.652 E10.02080
G1 X12.666 Y20.612 E11.06499
G1 X12.486 Y20.822 E11.07754
G1 X12.376 Y20.912 E11.08399
G1 X12.266 Y20.992 E11.09016
G1 X12.146 Y21.062 E11.09646
G1 X12.026 Y21.122 E11.10255
G1 X11.766 Y21.202 E11.11489
G1 X11.626 Y21.222 E11.12130
G1 X11.486 Y21.222 E11.12766
G1 X-11.394 Y21.272 E12.16568
G1 X-11.524 Y21.272 E12.17158
G1 X-11.664 Y21.252 E12.17800
G1 X-11.794 Y21.222 E12.18405
G1 X-11.924 Y21.172 E12.19037
G1 X-12.174 Y21.052 E12.20295
G1 X-12.284 Y20.972 E12.20912
G1 X-12.384 Y20.882 E12.21522
G1 X-12.484 Y20.782 E12.22164
G1 X-12.644 Y20.552 E12.23435
G1 X-24.134 Y0.772 E13.27215
G1 X-24.194 Y0.652 E13.27824
G1 X-24.244 Y0.532 E13.28414
G1 X-24.314 Y0.262 E13.29679
G1 X-24.324 Y0.122 E13.30316
G1 X-24.324 Y-0.008 E13.30906
G1 X-24.314 Y-0.148 E13.31542
G1 X-24.284 Y-0.288 E13.32192
G1 X-24.244 Y-0.418 E13.32809
G1 X-24.194 Y-0.548 E13.33441
G1 X-24.134 Y-0.668 E13.34050
G1 X-12.771 Y-20.460 E14.37588
G1 X-12.434 Y-20.328 F18000.000
G1 X-12.364 Y-20.428 F1440.000 E14.38142
G1 X-12.284 Y-20.528 E14.38723
G1 X-12.194 Y-20.618 E14.39301
G1 X-11.984 Y-20.758 E14.40446
G1 X-11.864 Y-20.808 E14.41036
G1 X-11.744 Y-20.838 E14.41597
G1 X-11.624 Y-20.858 E14.42149
G1 X-11.494 Y-20.868 E14.42740
G1 X11.386 Y-20.928 E15.46543
G1 X11.506 Y-20.918 E15.47089
G1 X11.636 Y-20.898 E15.47686
G1 X11.756 Y-20.868 E15.48247
G1 X11.866 Y-20.818 E15.48795
G1 X11.976 Y-20.758 E15.49364
G1 X12.076 Y-20.678 E15.49945
G1 X12.256 Y-20.498 E15.51100
G1 X23.816 Y-0.608 E16.55471
G1 X23.916 Y-0.378 E16.56609
G1 X23.956 Y-0.138 E16.57713
G1 X23.956 Y-0.008 E16.58302
G1 X23.946 Y0.122 E16.58894
G1 X23.916 Y0.242 E16.59455
G1 X23.816 Y0.472 E16.60593
G1 X12.426 Y20.322 E17.64421
G1 X12.356 Y20.422 E17.64975
G1 X12.276 Y20.522 E17.65556
G1 X12.186 Y20.612 E17.66133
G1 X11.976 Y20.752 E17.67278
G1 X11.856 Y20.802 E17.67868
G1 X11.736 Y20.832 E17.68429
G1 X11.616 Y20.852 E17.68981
G1 X11.486 Y20.862 E17.69573
G1 X-11.394 Y20.912 E18.73375
G1 X-11.514 Y20.902 E18.73922
G1 X-11.644 Y20.882 E18.74519
G1 X-11.764 Y20.852 E18.75080
G1 X-11.874 Y20.802 E18.75628
G1 X-11.984 Y20.742 E18.76196
G1 X-12.084 Y20.662 E18.76777
G1 X-12.184 Y20.572 E18.77388
G1 X-12.264 Y20.482 E18.77934
G1 X-23.824 Y0.592 E19.82305
G1 X-23.924 Y0.362 E19.83443
G1 X-23.964 Y0.122 E19.84547
G1 X-23.964 Y-0.008 E19.85137
G1 X-23.954 Y-0.138 E19.85728
G1 X-23.924 Y-0.258 E19.86289
G1 X-23.824 Y-0.488 E19.87427
G1 X-12.461 Y-20.280 E20.90966
G1 X-12.124 Y-20.148 F18000.000
G1 X-12.064 Y-20.238 F1440.000 E20.91457
G1 X-11.984 Y-20.318 E20.91970
G1 X-11.904 Y-20.378 E20.92424
G1 X-11.804 Y-20.438 E20.92953
G1 X-11.704 Y-20.478 E20.93441
G1 X-11.604 Y-20.498 E20.93904
G1 X-11.494 Y-20.508 E20.94405
G1 X11.386 Y-20.568 E21.98208
G1 X11.496 Y-20.558 E21.98709
G1 X11.596 Y-20.538 E21.99172
G1 X11.696 Y-20.498 E21.99660
G1 X11.786 Y-20.448 E22.00127
G1 X11.876 Y-20.378 E22.00645
G1 X11.946 Y-20.298 E22.01127
G1 X12.006 Y-20.208 E22.01618
G1 X23.546 Y-0.338 E23.05865
G1 X23.576 Y-0.228 E23.06382
G1 X23.596 Y-0.128 E23.06845
G1 X23.596 Y-0.018 E23.07344
G1 X23.576 Y0.092 E23.07851
G1 X23.546 Y0.192 E23.08325
G1 X23.506 Y0.292 E23.08813
G1 X12.116 Y20.142 E24.12642
G1 X12.056 Y20.232 E24.13132
G1 X11.976 Y20.312 E24.13646
G1 X11.896 Y20.372 E24.14099
G1 X11.796 Y20.432 E24.14628
G1 X11.696 Y20.472 E24.15117
G1 X11.596 Y20.492 E24.15580
G1 X11.486 Y20.502 E24.16081
G1 X-11.394 Y20.552 E25.19884
G1 X-11.504 Y20.542 E25.20385
G1 X-11.604 Y20.522 E25.20847
G1 X-11.704 Y20.482 E25.21336
G1 X-11.794 Y20.432 E25.21803
G1 X-11.884 Y20.362 E25.22320
G1 X-11.954 Y20.282 E25.22803
G1 X-12.014 Y20.192 E25.23293
G1 X-23.554 Y0.322 E26.27540
G1 X-23.584 Y0.212 E26.28058
G1 X-23.604 Y0.112 E26.28520
G1 X-23.604 Y0.002 E26.29019
G1 X-23.584 Y-0.108 E26.29527
G1 X-23.554 Y-0.208 E26.30000
G1 X-23.514 Y-0.308 E26.30489
G1 X-12.151 Y-20.100 E27.34028
G1 X-11.804 Y-19.968 F18000.000
G1 X-11.764 Y-20.028 F1440.000 E27.34355
G1 X-11.704 Y-20.078 E27.34709
G1 X-11.644 Y-20.118 E27.35036
G1 X-11.574 Y-20.138 E27.35367
G1 X-11.494 Y-20.148 E27.35732
G1 X11.386 Y-20.208 E28.39535
G1 X11.456 Y-20.198 E28.39856
G1 X11.536 Y-20.178 E28.40230
G1 X11.596 Y-20.138 E28.40557
G1 X11.656 Y-20.088 E28.40912
G1 X11.696 Y-20.028 E28.41239
G1 X23.186 Y-0.248 E29.45019
G1 X23.216 Y-0.178 E29.45364
G1 X23.236 Y-0.108 E29.45695
G1 X23.236 Y-0.028 E29.46058
G1 X23.216 Y0.042 E29.46388
G1 X23.186 Y0.112 E29.46733
G1 X11.796 Y19.962 E30.50562
G1 X11.756 Y20.022 E30.50889
G1 X11.696 Y20.072 E30.51243
G1 X11.636 Y20.112 E30.51570
G1 X11.566 Y20.132 E30.51901
G1 X11.486 Y20.142 E30.52266
G1 X-11.394 Y20.192 E31.56069
G1 X-11.464 Y20.182 E31.56390
G1 X-11.544 Y20.162 E31.56764
G1 X-11.604 Y20.122 E31.57091
G1 X-11.664 Y20.072 E31.57446
G1 X-11.704 Y20.012 E31.57773
G1 X-23.194 Y0.232 E32.61553
G1 X-23.224 Y0.162 E32.61898
G1 X-23.244 Y0.092 E32.62229
G1 X-23.244 Y0.012 E32.62592
G1 X-23.224 Y-0.058 E32.62922
G1 X-23.194 Y-0.128 E32.63267
G1 X-11.831 Y-19.920 E33.66806
G1 X-11.494 Y-19.788 F18000.000
G1 X11.386 Y-19.848 F1440.000 E34.70609
G1 X22.876 Y-0.068 E35.74389
G1 X11.486 Y19.782 E36.78217
G1 X-11.394 Y19.832 E37.82020
G1 X-22.884 Y0.052 E38.85800
G1 X-11.521 Y-19.740 E39.89339
G1 F600.000 E38.89339
G1 Z0.800 F18000.000
G92 E0
G1 X-11.072 Y-19.062
G1 Z0.000
G1 F600.000 E1.00000
G1 X10.972 Y-19.120 F1440.000 E2.00013
G1 X22.045 Y-0.058 E3.00025
G1 X11.072 Y19.062 E4.00037
G1 X-10.975 Y19.115 E5.00062
G1 X-22.045 Y0.058 E6.00051
G1 X-11.100 Y-19.015 E6.99814
G1 X-11.281 Y-19.422 F18000.000
G1 X11.180 Y-19.481 F1440.000 E8.01716
G1 X22.461 Y-0.059 E9.03617
G1 X11.281 Y19.422 E10.05519
G1 X-11.182 Y19.477 E11.07433
G1 X-22.461 Y0.059 E12.09311
G1 X-11.309 Y-19.375 E13.10963
G1 X-11.490 Y-19.783 F18000.000
G1 X11.387 Y-19.842 F1440.000 E14.14754
G1 X22.877 Y-0.060 E15.18545
G1 X11.490 Y19.783 E16.22336
G1 X-11.389 Y19.839 E17.26135
G1 X-22.877 Y0.060 E18.29910
G1 X-11.518 Y-19.735 E19.33450
G1 F600.000 E18.33450
G1 Z0.800 F18000.000
G92 E0
G1 X10.661 Y-18.863
G1 Z0.000
G1 F600.000 E1.00000
G1 X10.869 Y-18.655 F1800.000 E1.01348
G1 X11.581 Y-17.430 E1.07842
G1 X10.149 Y-18.862 E1.17124
G1 X9.637 Y-18.860 E1.19471
G1 X12.292 Y-16.205 E1.36686
G1 X13.004 Y-14.980 E1.43180
G1 X9.125 Y-18.859 E1.68327
G1 X8.613 Y-18.858 E1.70675
G1 X13.715 Y-13.755 E2.03755
G1 X14.427 Y-12.530 E2.10250
G1 X8.101 Y-18.856 E2.51263
G1 X7.589 Y-18.855 E2.53611
G1 X15.138 Y-11.306 E3.02558
G1 X15.850 Y-10.081 E3.09052
G1 X7.077 Y-18.854 E3.65932
G1 X6.565 Y-18.852 E3.68280
G1 X16.561 Y-8.856 E4.33092
G1 X17.272 Y-7.630 F18000.000
G1 X6.052 Y-18.850 F1800.000 E5.05839
G1 X5.540 Y-18.849 E5.08186
G1 X17.984 Y-6.405 E5.88865
G1 X18.695 Y-5.180 E5.95359
G1 X5.028 Y-18.848 E6.83971
G1 X4.516 Y-18.847 E6.86318
G1 X19.407 Y-3.956 E7.82863
G1 X20.118 Y-2.731 E7.89357
G1 X4.004 Y-18.845 E8.93836
G1 X3.492 Y-18.844 E8.96183
G1 X20.830 Y-1.506 E10.08594
G1 X21.541 Y-0.281 E10.15088
G1 X2.980 Y-18.843 E11.35433
G1 X2.468 Y-18.841 E11.37780
G1 X21.595 Y0.286 E12.61794
G1 X21.408 Y0.612 E12.63518
G1 X1.955 Y-18.840 E13.89638
G1 X1.443 Y-18.839 E13.91985
G1 X21.221 Y0.939 E15.20211
G1 X21.034 Y1.265 E15.21935
G1 X0.931 Y-18.838 E16.52268
G1 X0.419 Y-18.836 E16.54616
G1 X20.846 Y1.591 E17.87055
G1 X20.659 Y1.917 E17.88779
G1 X-0.093 Y-18.835 E19.23324
G1 X-0.605 Y-18.834 E19.25672
G1 X20.472 Y2.243 E20.62323
G1 X20.285 Y2.570 E20.64048
G1 X-1.117 Y-18.832 E22.02806
G1 X-1.629 Y-18.831 E22.05153
G1 X20.098 Y2.896 E23.46018
G1 X19.910 Y3.223 F18000.000
G1 X-2.142 Y-18.829 F1800.000 E24.88989
G1 X-2.654 Y-18.828 E24.91336
G1 X19.723 Y3.549 E26.36414
G1 X19.536 Y3.875 E26.38138
G1 X-3.166 Y-18.827 E27.85322
G1 X-3.678 Y-18.825 E27.87670
G1 X19.348 Y4.201 E29.36960
G1 X19.161 Y4.527 E29.38684
G1 X-4.190 Y-18.824 E30.90081
G1 X-4.702 Y-18.823 E30.92429
G1 X18.974 Y4.854 E32.45932
G1 X18.787 Y5.180 E32.47656
G1 X-5.214 Y-18.821 E34.03266
G1 X-5.726 Y-18.820 E34.05613
G1 X18.600 Y5.506 E35.63329
G1 X18.413 Y5.832 E35.65054
G1 X-6.238 Y-18.819 E37.24876
G1 X-6.750 Y-18.817 E37.27224
G1 X18.225 Y6.158 E38.89153
G1 X18.038 Y6.485 E38.90877
G1 X-7.262 Y-18.816 E40.54913
G1 X-7.775 Y-18.815 E40.57260
G1 X17.851 Y6.811 E42.23402
G1 X17.664 Y7.137 F18000.000
G1 X-8.287 Y-18.813 F1800.000 E43.91651
G1 X-8.799 Y-18.812 E43.93999
G1 X17.476 Y7.463 E45.64353
G1 X17.289 Y7.790 E45.66078
G1 X-9.311 Y-18.811 E47.38539
G1 X-9.823 Y-18.809 E47.40887
G1 X17.102 Y8.116 E49.15454
G1 X16.915 Y8.442 E49.17179
G1 X-10.335 Y-18.808 E50.93853
G1 X-10.847 Y-18.807 E50.96201
G1 X16.728 Y8.768 E52.74981
G1 X16.540 Y9.094 E52.76706
G1 X-11.110 Y-18.556 E54.55979
G1 X-11.298 Y-18.230 E54.57703
G1 X16.353 Y9.421 E56.36976
G1 X16.166 Y9.747 E56.38700
G1 X-11.485 Y-17.904 E58.17973
G1 X-11.672 Y-17.578 E58.19698
G1 X15.979 Y10.073 E59.98970
G1 X15.792 Y10.399 E60.00695
G1 X-11.859 Y-17.251 E61.79968
G1 X-12.046 Y-16.925 E61.81692
G1 X15.604 Y10.726 E63.60965
G1 X15.417 Y11.052 E63.62689
G1 X-12.234 Y-16.599 E65.41962
G1 X-12.421 Y-16.273 E65.43686
G1 X15.230 Y11.378 E67.22959
G1 X15.043 Y11.704 E67.24684
G1 X-12.608 Y-15.947 E69.03957
G1 X-12.795 Y-15.620 E69.05681
G1 X14.855 Y12.031 E70.84954
G1 X14.668 Y12.357 E70.86678
G1 X-12.983 Y-15.294 E72.65951
G1 X-13.170 Y-14.968 E72.67676
G1 X14.481 Y12.683 E74.46948
G1 X14.294 Y13.009 E74.48673
G1 X-13.357 Y-14.642 E76.27945
G1 X-13.544 Y-14.315 E76.29670
G1 X14.107 Y13.335 E78.08943
G1 X13.919 Y13.662 E78.10667
G1 X-13.731 Y-13.989 E79.89940
G1 X-13.919 Y-13.663 E79.91664
G1 X13.732 Y13.988 E81.70937
G1 X13.545 Y14.314 E81.72662
G1 X-14.106 Y-13.337 E83.51935
G1 X-14.293 Y-13.010 E83.53659
G1 X13.358 Y14.640 E85.32932
G1 X13.171 Y14.967 E85.34656
G1 X-14.480 Y-12.684 E87.13929
G1 X-14.668 Y-12.358 E87.15654
G1 X12.983 Y15.293 E88.94926
G1 X12.796 Y15.619 E88.96651
G1 X-14.855 Y-12.032 E90.75923
G1 X-15.042 Y-11.706 E90.77648
G1 X12.609 Y15.945 E92.56921
G1 X12.422 Y16.272 E92.58645
G1 X-15.229 Y-11.379 E94.37918
G1 X-15.416 Y-11.053 E94.39642
G1 X12.234 Y16.598 E96.18915
G1 X12.047 Y16.924 E96.20640
G1 X-15.604 Y-10.727 E97.99912
G1 X-15.791 Y-10.401 E98.01636
G1 X11.860 Y17.250 E99.80909
G1 X11.673 Y17.576 E99.82633
G1 X-15.978 Y-10.074 E101.61906
G1 X-16.165 Y-9.748 E101.63631
G1 X11.486 Y17.903 E103.42903
G1 X11.298 Y18.229 E103.44628
G1 X-16.352 Y-9.422 E105.23900
G1 X-16.540 Y-9.096 E105.25625
G1 X11.111 Y18.555 E107.04898
G1 X10.849 Y18.806 E107.06562
G1 X-16.727 Y-8.770 E108.85350
G1 X-16.914 Y-8.443 E108.87075
G1 X10.337 Y18.808 E110.63756
G1 X9.825 Y18.809 E110.66104
G1 X-17.101 Y-8.117 E112.40678
G1 X-17.289 Y-7.791 E112.42402
G1 X9.313 Y18.810 E114.14868
G1 X8.800 Y18.811 E114.17217
G1 X-17.476 Y-7.465 E115.87576
G1 X-17.663 Y-7.138 E115.89300
G1 X8.288 Y18.813 E117.57553
G1 X7.776 Y18.814 E117.59901
G1 X-17.850 Y-6.812 E119.26046
G1 X-18.037 Y-6.486 E119.27771
G1 X7.264 Y18.815 E120.91809
G1 X6.751 Y18.816 E120.94157
G1 X-18.225 Y-6.160 E122.56088
G1 X-18.412 Y-5.833 E122.57812
G1 X6.239 Y18.818 E124.17637
G1 X5.727 Y18.819 E124.19985
G1 X-18.599 Y-5.507 E125.77702
G1 X-18.786 Y-5.181 E125.79426
G1 X5.215 Y18.820 E127.35036
G1 X4.703 Y18.821 E127.37384
G1 X-18.974 Y-4.855 E128.90887
G1 X-19.161 Y-4.529 E128.92611
G1 X4.190 Y18.823 E130.44006
G1 X3.678 Y18.824 E130.46354
G1 X-19.348 Y-4.202 E131.95643
G1 X-19.535 Y-3.876 E131.97367
G1 X3.166 Y18.825 E133.44549
G1 X2.654 Y18.826 E133.46897
G1 X-19.722 Y-3.550 E134.91971
G1 X-19.910 Y-3.224 E134.93696
G1 X2.142 Y18.828 E136.36663
G1 X1.629 Y18.829 E136.39011
G1 X-20.097 Y-2.897 E137.79871
G1 X-20.284 Y-2.571 E137.81596
G1 X1.117 Y18.830 E139.20349
G1 X0.605 Y18.831 E139.22697
G1 X-20.471 Y-2.245 E140.59343
G1 X-20.658 Y-1.919 E140.61067
G1 X0.093 Y18.832 E141.95606
G1 X-0.420 Y18.834 E141.97954
G1 X-20.846 Y-1.592 E143.30386
G1 X-21.033 Y-1.266 E143.32110
G1 X-0.932 Y18.835 E144.62435
G1 X-1.444 Y18.836 E144.64783
G1 X-21.220 Y-0.940 E145.93001
G1 X-21.407 Y-0.614 E145.94725
G1 X-1.956 Y18.837 E147.20836
G1 X-2.468 Y18.839 E147.23184
G1 X-21.594 Y-0.288 E148.47188
G1 X-21.544 Y0.276 E148.49782
G1 X-2.981 Y18.840 E149.70139
G1 X-3.493 Y18.841 E149.72487
G1 X-20.833 Y1.501 E150.84909
G1 X-20.121 Y2.726 E150.91403
G1 X-4.005 Y18.842 E151.95892
G1 X-4.517 Y18.844 E151.98240
G1 X-19.410 Y3.951 E152.94795
G1 X-18.698 Y5.176 E153.01289
G1 X-5.029 Y18.845 E153.89910
G1 X-5.542 Y18.846 E153.92259
G1 X-17.987 Y6.401 E154.72946
G1 X-17.275 Y7.626 E154.79440
G1 X-6.054 Y18.847 E155.52194
G1 X-6.566 Y18.848 E155.54543
G1 X-16.564 Y8.851 E156.19362
G1 X-15.852 Y10.076 E156.25856
G1 X-7.078 Y18.850 E156.82743
G1 X-7.590 Y18.851 E156.85091
G1 X-15.141 Y11.301 E157.34043
G1 X-14.429 Y12.526 E157.40538
